X:36
T:Mikor én még kicsit voltam
O:Jósvafő (Abaúj), Özv. Bucsek Istvánné - Fodor Zsuzsanna (86), 1952.07
Q: "Tempo guisto" 1/4=84
M:2/4
L:1/4
K:Bb
B/B/B/c/ | d/c/B | A z | 
G/G/G/A/ | B/A/G | F z | 
E/E/E/F/ | G/F/E/D/ | 
C/C/C/D/ | E/D/C | B, z | 

